X:1
T:Hymn to Red October
T:For solo guitar
T:Composer: Basil Poledouri
T:Arr: drBabus
C:Basil Poledouri
%%score ( 1 2 )
L:1/8
Q:1/4=72
M:4/4
K:G
V:1 treble-8 nm="Classical Guitar" snm="Guit."
V:2 treble-8 
V:1
"^Andante" [^Gc]8 | ^c8 | z4 [^Ge]4 | ^c8 | z8 | z4 z4 | ^c8 | ^c8 |"^A" _E4 z4 |!f! E2 G2 F2 D2 | %10
 EFGE F2 GA | BABG AGAF | EFGA GA F2 | g2 g2 f4 | b2 b2 a4 | [Ac]2 [Ac]2 [GB]2 [FA]2 | A6 A2 | %17
 A6[Q:1/4=96]"^Allegretto" !fermata!^g!mf!.f/.g/ |"^B" .a.b/.a/ .^g.f/.e/ .a/.a/.b/.a/ .g.f/.e/ | %19
 .f.B .b.f .f/.f/.e/.f/ .^g/.g/.f/.g/ | .a.^g/.f/ .a.f .e.f/.e/ .f/.f/.e/.^d/ | %21
[M:3/4] e^g/f/ ge ^ce |"_rit." ([^CF]6 | F6) ||[K:Bb][M:4/4][Q:1/4=80]"^Maestoso""^C" ^F8 | %25
 z4 z d d>c | B4 z B g>f | e2 e2 z e e>d | c3 B ABce | d4 z A d>c | B4 z B g>f | e2 e2 z e e>d | %32
 c3 B AB c>A | G4 z2 g>f |"^D" g4 z b a>g | g2 g2 z2 g>f | e4 z g b>e' | d'4 z2 d'>c' | %38
 f'4 z d' c'>d' | b2 b2 z2 b>a | a4 z c' ^c'>c' | d'4 z2"^E" b>a | g4 z b a>g | g2 g2 z2 G>F | %44
 z4 z G B>e | d4 z2 d>c | f4 z d c>d | B2 B2 z2 B>A | A4 z c ^c>c | d4 z B B>A |"^F" B4 z B g>f | %51
 e2 e2 z e e>d | c3 B ABce | d4 z A d>c | B4 z B g>f | e2 e2 z e e>d | c3 B AB c>A | %57
 G4 z2"^G" g>f | g4 z b a>g | g2 g2 z2 G>F | G4 z G B>e | d4 z2 d>c | f4 z d c>d | B2 B2 z2 B>A | %64
 A4 z c ^c>c | d4 z2"^H" !^!d>c | B4 z2 !^!g>f | e4 z2 !>!e!>!d | c2 cB ABce | d4 d z !^!d>c | %70
 B4 z2 !^!g>f | e4 z2 ed | cccB ABcA | G4 G z g>f |"^I" g4 z b a>g | g2 g2 z2 B>A | G4 z G B>e | %77
 d4 z2 d>c | f4 z d c>d | B2 B2 z2 B>A | A4 z c ^c>c | d4 z [db] [db]>[ca] |"^J" [Bg]4 z B g>f | %83
 e2 e2 z e e>d | c3 B ABce | d4 z A d>c | B4 z B g>f | e2 e2 z e e>d | c3 B AB c>A | G4 z2 d>c | %90
"^K" B4 z G, B,>D | !breath!G6 [Gg]>[Ff] | [Ee-]8 | !breath![Ee]6 !>![Ee]!>![Dd] | c2 cB ABce | %95
 [Dd]4 d z d>c | B8- | !breath!B6 [Gg]>[Ff] |!>(! !fermata![Ee]8!>)! |] %99
V:2
 x8 | [^CE]2 [CE]2 [CE]4 | [CE]2 [CE]6 | [^CE]4 ^D2 E2 | [A,CE]4 [A,CE]4 | [_A,C=F_A]4 [A,CFA]4 | %6
 [^C^G]3 C E3 G | [^CA]2 [C^G]2 [^DF]4 | C4 D2 C2 | E,4 B,4 | E,4 B,2 A,A, | G,2 G,2 D2 D2 | %12
 A,B,CA, B,4 | .E.F.G.E .D.E.F.B, | .B,.A,.B,.G, D2 CB, | A,2 A,2 G,2 F,2 | =F,2 E,4 F,2 | x8 | %18
 EE/E/ EE/E/ E/E/E/E/ EE/E/ | E,E,E,E, E,/E,/E,/E,/ E,/E,/E,/E,/ | ^CCDD C4 |[M:3/4] x2 ^C2 E2 | %22
 x2 D4 | ^C4 ^A,F, ||[K:Bb][M:4/4] D z D z D z D z | D z D z D z D z | G, z G, z G, z G, z | %27
 G, z G, z G, z G, z | E z E z D z D z | D z D z D z D z | G, z G, z G, z G, z | %31
 G, z G, z G, z G, z | E z E z D z D z | G, z D z G, z G, z | E z E z E z E z | %35
 G, z G, z G, z G, z | E z E z E z E z | B, z B, z B, z B, z | D z D z D z D z | G z G z F z F z | %40
 E z C z A, z ^C z | d z A z D z D2 | E z E z E z E z | G, z G, z G, z G, z | E z E z/ E/ E z E z | %45
 B z B z B z B z | D z D z D z D z | G z G z F z F z | E z C z A, z ^C z | D z A, z D z D z | %50
 G, z G, z G, z G, z | G, z G, z G, z G, z | E z E z D z D z | D z D z D z D z | %54
 G, z G, z G, z G, z | G, z G, z G, z G, z | E z C z D z A, z | G, z D z G, z z2 | %58
 G, z G,2 G, z G, z | G, z G,2 G, z G, z | G, z G,2 G, z G, z | B, z B,2 B, z B, z | %62
 D z D z D z D z | D z D z D z D z | E z C z A, z ^C z | D z A, z D z B,>A, | %66
 G, z G, z G, z G,>F, | E z E z E z ED | E z C z D z A z | G z G z D z B>A | G4 z2 G>F | E4 z2 ED | %72
 E2 C2 D2 A2 | G,2 G,2 G, z z2 | E z E z/ E/ E z E z | G z G z/ G/ G z z2 | E z E z E z E z | %77
 D z D z D z D z | D z D z D z D z | G z G z d z d z | e z e z A z A z | D z A z d z z3/2 x/ | %82
 G, z G, z G, z G, z | G, z G, z G, z G, z | E z E z D z D z | D z D z D z D z | %86
 G, z G, z G, z G, z | G, z G, z G, z G, z | E z E z D z D z | G, z D z G, z D>C | G, z G,4 G,2 | %91
 G, z G,4 G,>F, | G, z G,4 G,2 | G, z G,4 z2 | E z C z D z A z | G, z G, z D z D>C | %96
 B,4 z G, B,>D | G, z G,4 G,>F, | G,4 z4 |] %99

